X:1
T:Olsztyn, 76.76 D
T:Olsztyn, 76.76 D
T:George Frederick Root, 1870
T:Public Domain Courtesy of the Cyber Hymnal™
C:George Frederick Root, 1870
Z:Public Domain
Z:Courtesy of the Cyber Hymnal™
%%score ( 1 2 ) 3
L:1/8
Q:1/4=83
M:2/4
K:D
V:1 treble 
V:2 treble 
V:3 bass 
V:1
 D | [DF]>[DF] [DF][CE] | [DF] [FA]2 [FA] | [GB]>[GB] [GB][FA] | [GB]3 [Gc] | [Fd]>[Ac] [GB][FA] | %6
 ([GB][Ac]) [Bd][GB] | [FA][DF] E[B,D] | [CE]3 [CE] | [DF]>[DF] [DF][CE] | [DF] [FA]2 [FA] | %11
 [GB]>[GB] [GB][FA] | [GB]3 [Gc][Fd]>[Ac][GB][FA] | ([GB][Ac]) [Bd][GB] | [FA][DF] [CE]>[CF] | %15
 D3 |] %16
V:2
 D | x4 | x4 | x4 | x4 | x4 | x4 | x2 E x | x4 | x4 | x4 | x4 | x8 | x4 | x4 | D3 |] %16
V:3
 [D,F,] | [D,A,]>[D,A,] [D,A,][A,,A,] | [D,A,] [D,D]2 [D,D] | [G,D]>[G,D] [G,D][D,D] | %4
 [G,D]3 [E,A,] | [D,A,]>[D,D] [D,D][D,D] | [D,D]2 [D,D][D,D] | [D,D][D,A,] [B,,^G,][B,,G,] | %8
 [A,,A,]3 [A,,A,] | [D,A,]>[D,A,] [D,A,][A,,A,] | [D,A,] [D,D]2 [D,D] | [G,D]>[G,D] [G,D][D,D] | %12
 [G,D]3 [E,A,][D,A,]>[D,D][D,D][D,D] | [G,,D]2 [G,,D][G,,D] | [A,,D][A,,A,] [A,,G,]>[A,,A,] | %15
 [D,F,]3 |] %16

